icons/op-file-doc-16.svg

<svg width="16" height="16" viewBox="0 0 16 16" fill="none" xmlns="http://www.w3.org/2000/svg">
<path fill-rule="evenodd" clip-rule="evenodd" d="M3.75 1.5C3.61193 1.5 3.5 1.61193 3.5 1.75V14.25C3.5 14.3881 3.61193 14.5 3.75 14.5H13.25C13.3881 14.5 13.5 14.3881 13.5 14.25V4.66421C13.5 4.59791 13.4737 4.53432 13.4268 4.48744L10.5126 1.57322C10.4657 1.52634 10.4021 1.5 10.3358 1.5H3.75ZM2 1.75C2 0.783502 2.7835 0 3.75 0H10.3358C10.7999 0 11.245 0.184374 11.5732 0.512563L14.4874 3.42678C14.8156 3.75497 15 4.20008 15 4.66421V14.25C15 15.2165 14.2165 16 13.25 16H3.75C2.7835 16 2 15.2165 2 14.25V1.75Z" fill="#24292F"/>
<path d="M5 7.25C5 6.83579 5.33579 6.5 5.75 6.5H11.25C11.6642 6.5 12 6.83579 12 7.25C12 7.66421 11.6642 8 11.25 8H5.75C5.33579 8 5 7.66421 5 7.25Z" fill="#1F2328"/>
<path d="M5.75 9C5.33579 9 5 9.33579 5 9.75C5 10.1642 5.33579 10.5 5.75 10.5H11.25C11.6642 10.5 12 10.1642 12 9.75C12 9.33579 11.6642 9 11.25 9H5.75Z" fill="#1F2328"/>
<path d="M5.75 11.5C5.33579 11.5 5 11.8358 5 12.25C5 12.6642 5.33579 13 5.75 13H11.25C11.6642 13 12 12.6642 12 12.25C12 11.8358 11.6642 11.5 11.25 11.5H5.75Z" fill="#1F2328"/>
</svg>

<svg xmlns="http://www.w3.org/2000/svg" width="16" height="16" viewBox="0 0 16 16"><path d="M2 1.75C2 .784 2.783 0 3.75 0h6.586c.464 0 .909.184 1.237.513l2.914 2.914c.329.328.513.773.513 1.237v9.586A1.75 1.75 0 0 1 13.25 16h-9.5A1.75 1.75 0 0 1 2 14.25Zm1.75-.25a.25.25 0 0 0-.25.25v12.5c0 .138.112.25.25.25h9.5a.25.25 0 0 0 .25-.25V4.664a.25.25 0 0 0-.073-.177l-2.914-2.914a.25.25 0 0 0-.177-.073Z"/><path d="M5 7.25a.75.75 0 0 1 .75-.75h5.5a.75.75 0 0 1 0 1.5h-5.5A.75.75 0 0 1 5 7.25ZM5.75 9a.75.75 0 0 0 0 1.5h5.5a.75.75 0 0 0 0-1.5h-5.5Zm0 2.5a.75.75 0 0 0 0 1.5h5.5a.75.75 0 0 0 0-1.5h-5.5Z"/></svg>
